X: 3
T: The Trip To Pakistan
R: reel
M: 4/4
L: 1/8
K: Bmin
|: BdfB d3 f | e3 d cdec | BdfB d3 f |[1 edcd B4 :|[2 edcd B2 BA :||: BdfB g3 e | f3 a fefd|BdfB g3 e |[1 fedf e4 :|[2 fedf e2 a2 :||: cdfc dfdc | BcdB cdcB | AceA ceAe |[1 edcd B4 :|[2 edcd B2 BA :|


Tune 112	Setting 20981

